X:1
T:He Stood in the Midst
T:He Stood in the Midst
T:From Albert Lortzing (1801-1851)
T:Anonymous, 1891
T:Public Domain Courtesy of the Cyber Hymnal™
T:Public Domain Courtesy of the Cyber Hymnal™
C:From Albert Lortzing (1801-1851)
Z:Public Domain
Z:Courtesy of the Cyber Hymnal™
%%score ( 1 2 ) 3
L:1/8
Q:1/4=100
M:4/4
K:G
V:1 treble 
V:2 treble 
V:3 bass 
V:1
 [GB]2 | [GB]2 [GB]>[G^A] [GB]2 [Gc][Gc] | [GB]4 [DG]2 [GB]2 | [FA]2 [FA]>G [FA]2 [FB]2 | %4
w: 1.~He|stood in the midst of His|chos- en, At|East- er He stood at|
w: 2.~He|stood as the sun ’mid the|plan- ets, En-|rich- ing their orbs with|
w: 3.~He|stood to re- vive th- e|droop- ing, He|stood to sus- tain the|
w: 4.~In|the midst of the Church He|stand- eth, A|fount- ain whence vir- tue|
w: 5.~In|the midst of the fierc- est|bat- tle He|stand- eth with suc- cor|
 G4 z2 [GB]2 | [GB]2 [GB]>[G^A] [GB]2 [Gc][Gc] | [GB]4 [DG]2 ([GB][GB]) | %7
w: e’en; The|wounds that were made by the|ir- on In~the *|
w: light; He|stood as a cap- tain in-|spir- ing His *|
w: frail; He|stood to in- fuse fre- sh|cour- age In *|
w: flows; He|light- ens, He leads, H- e|pas- tures, His *|
w: near; In|the black- est and wild- est|tem- pest, A *|
 [FA]2 [FA]>[F^G] [FA]2 [FB]2 | G4 z2 GG | [EG]2 [EG]>[EG] [^DF]2 [DF][DF] | [EG]4 [B,E]2 (GA) | %11
w: hands and the feet were|seen. And he|showed where the bar- ba- rous|spear- head, Trans- *|
w: sol- diers to brave the|fight; And He|stood as a rose in a|gar- den, Its *|
w: those that be- gin to|fail; As a|guide and a help to the|pil- grims Who *|
w: sheep by their name He|knows; And wher-|ev- er His flock H- e|lead- eth, Be- *|
w: bea- con the tossed to|cheer. I walk|through the val- ley of sha-|dows; I see *|
 [GB]2 [Gc]>[GB] [FB]2 [FA]2 | !fermata![DG]4 |] %13
w: fix- ing His heart, had|been.|
w: or- na- ment and de-|light.|
w: tra- verse this tear- ful|vale.|
w: fore them the Pas- tor|goes.|
w: Him, and I have no|fear.|
V:2
 x2 | x8 | x8 | x7/2 G/ x4 | G4 x4 | x8 | x8 | x8 | G4 GG x2 | x8 | x6 G2 | x8 | x4 |] %13
V:3
 [G,D]2 | [G,D]2 [G,D]>[G,^C] [G,D]2 [G,E][G,E] | [G,D]4 [G,B,]2 [G,D]2 | %3
 [D,C]2 [D,C]>[D,B,] [D,C]2 [D,D]2 | [G,B,]4 z2 [G,D]2 | [G,D]2 [G,D]>[G,^C] [G,D]2 [G,E][G,E] | %6
 [G,D]4 [G,B,]2 ([G,D][G,D]) | [D,C]2 [D,C]>[D,B,] [D,C]2 [D,D]2 | [G,B,]4 z2 [E,B,][E,B,] | %9
 [E,B,]2 [E,B,]>[E,B,] [B,,A,]2 [B,,B,][B,,A,] | [E,G,]4 [E,G,]2 ([E,B,][_E,C]) | %11
 [D,D]2 [D,E]>[D,D] [D,D]2 [D,C]2 | !fermata![G,,B,]4 |] %13

